!!!COM: Vivaldi, Antonio Lucio
!!!CDT: 1678/03/04-1741/08/28
!!!OPR: 12 Sonatas for Violin and Basso continuo
!!!OTL: Sonata in D minor, op. @{OPS}, no. @{ONM} (@{SCT})
!!!OPS: 2
!!!ONM: 3
!!!OMV: 1. Preludio
!!!SCT: RV 14
!!!SCA: Antonio Vivaldi: Thematisch-systematisches Verzeichnis seiner Werke (Ryom-Verzeichnis)
!!!OMD: Andante
!!!key: d
**kern	**fb	**kern
*part2	*	*part1
*staff2	*	*staff1
*ICklav	*	*ICstr
*Icemba	*	*Ivioln
*I"Basso continuo	*	*I"Violino
*I'bc	*	*I'v
*>[A,A,B,B]	*>[A,A,B,B]	*>[A,A,B,B]
*>norep[A,B]	*>norep[A,B]	*>norep[A,B]
*>A	*>A	*>A
*clefF4	*	*clefG2
*k[b-]	*	*k[b-]
*d:	*	*d:
*M4/4	*	*M4/4
*met(c)	*	*met(c)
*MM53	*	*MM53
=1	=1	=1
2r	.	8dd\L
.	.	8a\J
.	.	8f/L
.	.	16e/L
.	.	16d/JJ
8A\L	#	16c#X/LL
.	.	16Bn/J
8E\J	.	8A/J
8C#X/L	.	8r
16BBn/L	.	8ee\
16AA/JJ	.	.
=2	=2	=2
8d\L	.	8ff\L
8A\J	.	8cc#X\J
8F\L	.	8dd\L
16E\L	.	8gg#X\J
16D\JJ	.	.
16C#X/LL	6	8aa\L
16BBn/J	.	.
8AA/J	.	8A/J
8r	.	8r
8A\	.	8aa\
=3	=3	=3
8Bn\L	7	(16aa\LL
.	.	16ff#X\J)
8BBn\J	6	8gg\J
8C#X\L	5	8a\L
8c#X\J	.	8gg\J
8d\L	4	(16gg\LL
.	.	16ee\J)
8D\J	3	8ff\J
8r	.	8d\L
8D\	.	8ff\J
!!LO:LB:g=original
=4	=4	=4
4G\	.	16bb-y\LL
.	.	16aa\
.	.	16gg\
.	.	16ff\JJ
4GG/	6-r	8ee-X\L
.	5	8dd\J
4AA/	#	4cc#X\t
8r	.	8r
8c#X\	6	16aa\LL
.	.	16gg\JJ
=5	=5	=5
8d\L	.	8ff\L
8G\J	6 5	16een\L
.	.	16dd\JJ
8A\L	5 4	8.cc#X\Lt
8AA\J	#	.
.	.	16dd\Jk
8D\	.	8dd/L
4d\	5	8d/J
.	4 2	8e/L
8c#X\	6 5	16a/L
.	.	16g/JJ
=6	=6	=6
8d\L	.	8f/
8D\J	.	4dd\
8E\L	7	.
16A\L	#	8cc#X\
16G\JJ	.	.
8F\	6	8dd/L
4f\	6	8f/J
.	4 2	8g/L
8e\	6	16cc/L
.	.	16b-y/JJ
=7	=7	=7
8f\L	.	8a/
8F\J	.	4ff\
8G\L	7	.
16c\L	-	4ee-X\
16B-y\JJ	.	.
8A\L	5-r	.
8B-y\	3	4dd\
8E-X\	7	.
8En\J	6	16cc\LL
.	.	16b-y\JJ
=8	=8	=8
4F\	.	8a/L
.	.	8f/J
8r	.	[4b-y\
8BB-y/	.	.
4.E-X\	5	8b-y/L]
.	.	16a/L
.	.	16g/JJ
.	6	8cc\L
16D/LL	.	8cc\J
16C/JJ	.	.
!!LO:LB:g=original
=9	=9	=9
8F\L	5	8cc\L
8F\J	.	16b-y\L
.	.	16a\JJ
8F\L	6	[4dd\
16E-X\L	.	.
16D\JJ	.	.
4.G\	5	8dd\L]
.	.	16cc\L
.	.	16b-y\JJ
.	6-r	8ee-X\L
16F\LL	.	8ee-y\J
16E-X\JJ	.	.
=10	=10	=10
8AA/	5-r	8ee-y\L
4BB-y/	3	8dd\J
.	4-r 2	8cc\L
8AA/	6	16ff\L
.	.	16ee-X\JJ
8BB-y\L	.	8dd\L
8d\J	.	8b-y\J
8c\L	.	4r
16f\L	.	.
16e-X\JJ	.	.
=11	=11	=11
8d\L	6	8r
8B-y\J	.	8ff\
8r	.	8bb-y\L
8B-y\	.	8dd\J
8e-X\L	6	8cc\L
8G\	.	8bb-y\
8F\	.	8aa\
8e-y\J	.	8c\J
=12	=12	=12
8d\L	6	8B-y/L
8FF\	6	8dd/
8EE-X\	.	8gg/
8G\J	.	8b-y/J
8c\L	6 -	8a/L
8E-X\	.	8gg/
8D\	.	8ff/
8c\J	.	8A/J
=13	=13	=13
8B-y/L	.	8G/L
8DD/J	.	8b-y/J
8CC/L	.	(16ee-X\LL
.	.	16dd\)
8G/J	.	(16dd\
.	.	16cc#X\JJ)
(16A\LL	.	8cc#y\L
16G\)	.	.
(16G\	.	8a\J
16F#X\JJ)	.	.
8F#y\L	6	8dd\L
8D\J	.	16ccn\L
.	.	16dd\JJ
!!LO:LB:g=original
=14	=14	=14
8G\L	n	8bn/L
16Fn\L	.	8g/J
16G\JJ	.	.
8En\L	6	(16cc\LL
.	.	16b-X\)
8C\J	.	(16b-y\
.	.	16a\JJ)
(16F\LL	.	8a/L
16E\)	.	.
(16E\	.	8f/J
16D\JJ)	.	.
8D/L	.	8r
8BBn/J	.	8dd\
=15	=15	=15
8E\L	#	8g#X/L
8F#X\	.	8e/J
8G#X\	.	[4ee\
8E\J	.	.
4F#X\	7	8ee\L]
.	.	8aa\J
8Bn\L	3	[4dd\
8A\J	.	.
=16	=16	=16
8G#X\L	5	8dd\L]
8E\J	.	16cc\L
.	.	16bn\JJ
8A\L	.	8cc\L
8C\J	.	16b\L
.	.	16a\JJ
8D/L	.	(16ff\LL
.	.	16ee\)
8BBn/J	.	(16dd\
.	.	16cc\JJ)
8E/L	#	8.b/L
8EE/J	.	.
.	.	16a/Jk
=17	=17	=17
4AA/	.	8a/L
.	.	8e/J
8r	.	[4f/
8A\	6	.
4G#X\	7	16f/LL]
.	.	16bn/
.	.	16cc/
.	.	16dd/JJ
4Gn\	6	[4e/
!!LO:LB:g=original
=18	=18	=18
4F#X\	7	16e/LL]
.	.	16a/
.	.	16b/
.	.	16cc/JJ
4Fn\	6	8d/L
.	.	8d/J
4E\	7 #	8g#X/L
.	.	16f#X/L
.	.	16e/JJ
8r	.	8a/L
8C/	6	16gn/L
.	.	16f/JJ
=19	=19	=19
4D\	7 5	8e/L
.	.	16d/L
.	.	16c/JJ
4E\	5nr 4	8.Bn/Lt
.	.	16A/Jk
2AA/	.	2A/
=20:|!|:	=20:|!|:	=20:|!|:
*>B	*>B	*>B
2r	.	8aa\L
.	.	8ee\J
.	.	8cc\L
.	.	16bn\L
.	.	16a\JJ
8e\L	#	16g#X/LL
.	.	16f#X/J
8Bn\J	.	8e/J
8G#X\L	6	8r
16F#X\L	.	8dd\
16E\JJ	.	.
=21	=21	=21
8A\L	#	8cc#X\L
8AA\	.	8ggn\
8d\	#	8ff#X\
8D\J	.	8cccn\J
8G\L	6-r	16bb-X\LL
.	.	16aa\J
8B-y\	.	8gg\J
8e-X\	.	8r
8G\J	.	8bb-y\
=22	=22	=22
8F#X\L	6	(16aa\LL
.	.	16gg\J)
8A\	.	8aa\J
8d\	.	8r
8Fn\J	.	8aa\
8En\L	6	(16gg\LL
.	.	16ff\J)
8G\	.	8gg\J
8c\	.	8r
8E-X\J	.	8gg\
!!LO:LB:g=original
=23	=23	=23
4D\	6	8ff\L
.	.	8b-y\J
8r	.	[4bb-y\
8B-y\	.	.
4.f\	5 4	8bb-y\L]
.	X 3	8aa\
.	.	8dd\
8e-X\	6	[8gg\J
=24	=24	=24
8A\	7	8gg\L]
4d\	7	8ff\
.	6	8b-y\
8c\	7 -	[8ee-X\J
8F\	7-r	8ee-y\L]
4B-y\	7	8dd\
.	6	8g\
8A\	7	[8cc\J
=25	=25	=25
8D\	7 #	8cc\L]
4G\	5	8b-y\J
.	4 2	8a\L
8F#X\	6 5	16dd\L
.	.	16cc\JJ
8G\L	.	8b-y/L
8A\	.	8g/J
8B-y\	.	[4gg\
8G\J	.	.
=26	=26	=26
8A\	7	8gg\L]
4d\	3	8ff\J
.	4 2	8een\L
8c#X\	6 5	16aa\L
.	.	16gg\JJ
4d\	.	8ff\L
.	.	8dd\
8r	.	8bb-y\
8f\	6	8dd\J
=27	=27	=27
(16e\LL	6#/	8cc#X\L
16d\J)	.	.
8e\J	.	8ee\
8r	.	8aa\
8e\	6nr	8ccn\J
(16d\LL	6nr	8bn\L
16c\J)	.	.
8d\J	.	8dd\
(16e\LL	6	8gg\
16d\J)	.	.
8e\J	5-r	8b-X\J
!!LO:PB:g=original
=28	=28	=28
8f\L	.	8a\L
16F\L	.	8cc\J
16G\JJ	.	.
8A\L	.	[4ff\
8F\J	.	.
8G\L	.	8ff\L]
16A\L	.	16ee\L
16B-y\JJ	.	16dd\JJ
16c\LL	.	8ee\L
16G\	.	.
16A\	.	8ee\J
16E\JJ	.	.
=29	=29	=29
8F\L	.	(16aa\LL
.	.	16ff\J)
16G\L	.	8dd\J
16A\JJ	.	.
16B-y\LL	.	8r
16A\	.	.
16G\	.	8dd\
16F\JJ	.	.
8E\L	6	8gg\L
16F\L	.	16cc\L
16G\JJ	.	16bn\JJ
16A\LL	.	8cc\L
16E\	.	.
16F\	.	8cc\J
16C\JJ	.	.
=30	=30	=30
8D\L	.	(16ff\LL
.	.	16dd\J)
16E\L	.	8b-y\J
16F\JJ	.	.
16G\LL	.	8b-y\L
16F\	.	.
16E\	.	8b-y\J
16D\JJ	.	.
8C\L	.	4ee\
16c\L	.	.
16B-y\JJ	.	.
8A\L	6	8ff\L
8AA\J	5	16ee\L
.	.	16dd\JJ
=31	=31	=31
4BB-y/	.	8cc\L
.	.	16b-y\L
.	.	16a\JJ
4C/	4	8.g/LT
.	3	.
.	.	16f/Jk
4F\	5	8f/L
.	.	8a/J
8r	.	[4dd\
8F\	6	.
!!LO:LB:g=original
=32	=32	=32
4.G\	5	8dd\L]
.	.	16cc\L
.	.	16bn\JJ
.	6	8ee\L
16F\LL	.	8ee\J
16E\JJ	.	.
8A\L	.	8ee\L
8A\	.	8a\J
8A\	.	[4ff\
8D\J	.	.
=33	=33	=33
4.B-y\	5	8ff\L]
.	.	16ee\L
.	.	16dd\JJ
.	6	8gg\L
16A\LL	.	8gg\J
16G\JJ	.	.
8c#X\L	5	8gg\L
8c#y\	.	8a\J
8d\	.	8ff\L
8G\J	.	16ee\L
.	.	16dd\JJ
=34	=34	=34
8A\L	#	16cc#X\LL
.	.	16bn\J
8E\J	5nr	8a\J
8C#X/L	6	4r
16BBn/L	.	.
16AA/JJ	.	.
4D\	.	8dd\L
.	.	8a\J
4r	.	8f/L
.	.	16e/L
.	.	16d/JJ
=35	=35	=35
8A\L	#	16c#X/LL
.	.	16Bn/J
8E\J	.	8A/J
8C#X/L	.	4r
16BBn/L	.	.
16AA/JJ	.	.
4GG/	-	8bb-X\L
.	.	8gg\J
4r	.	8ee-X\L
.	.	(16gg\L
.	.	16aa\JJ)
!!LO:LB:g=original
=36	=36	=36
4GG/	.	(16bb-y\LL
.	.	16aa\)
.	.	(16gg\
.	.	16ff\JJ)
4r	.	8ee-X\L
.	.	(16gg\L
.	.	16aa\JJ)
4GG/	.	(16bb-y\LL
.	.	16aa\)
.	.	(16gg\
.	.	16ff\JJ)
4r	.	8ee-y\L
.	.	16ff\L
.	.	16gg\JJ
=37	=37	=37
4AA/	#	4cc#X\t
8r	.	8r
8c#X\	.	16aa\LL
.	.	16gg\JJ
8d\L	.	8ff\L
8G\J	.	16ee\L
.	.	16dd\JJ
8A\L	#	8.cc#y\Lt
8AA\J	.	.
.	.	16dd\Jk
=38	=38	=38
4D\	.	8dd\L
.	.	8a\J
8r	.	[4b-y\
8d\	6	.
4c#X\	7	16b-y\LL]
.	.	16ee\
.	.	16ff\
.	.	16gg\JJ
4cn\	6	[4a/
=39	=39	=39
4Bn\	7	16a\LL]
.	.	16dd\
.	.	16ee\
.	.	16ff\JJ
4B-X\	6	8g/L
.	.	8g/J
4A\	#	8cc#X\L
.	.	16bn\L
.	.	16a\JJ
8r	.	8dd\L
8F\	6	16ccn\L
.	.	16b-y\JJ
=40	=40	=40
4G\	9	8a/L
.	8	16g/L
.	.	16f/JJ
4A\	5 4	8.e/Lt
.	X #	.
.	.	16d/Jk
2D\;	.	2d/;
=:|!	=:|!	=:|!
*-	*-	*-
!!!SMS: RV 14 / Estienne Roger, Amsterdam [facs.]
!!!ENC: Fran Bennion; rev. 04/21 E. Correia
!!!END: 2004/11/20
!!!ONB: Converted from MuseData with musedata2hum on Sat May 11 12:07:51 2024
!!!YEM: (C) 2004, 2004 Center for Computer Assisted Research in the Humanities.
!!!system-decoration: [(s1,s2)]
!!!URL-info: https://wiki.ccarh.org/wiki/MuseData:_Antonio_Vivaldi#Op._2:_Sonate_a_violino_e_basso_per_il_cembalo
!!!URL-pdf: https://pdf.musedata.org/vivaldi-op02-no03.pdf#page=1 MuseData edition
!!!URL-pdf: http://conquest.imslp.info/files/imglnks/usimg/b/b7/IMSLP99075-PMLP183164-Vivaldi_-_Sonatas_Op2.pdf#page=9 Estienne Roger Amsterdam: Estienne Roger, No.2, n.d.[1711].
!!!URL-youtube: https://www.youtube.com/watch?v=SiijZmW9jKM&t=377s L'Arte dell'Arco
!!!title: @{OTL}, mov. @{OMV}
!!!filter-chint: chint -mid
!!!EEV: 2024/05/11
!!!source-file: https://bitbucket.org/musedata/vivaldi/src/master/roger/op2/no03/stage2/01/01
!!!source-file: https://bitbucket.org/musedata/vivaldi/src/master/roger/op2/no03/stage2/01/02
